X:6058
T:Siobh=E1n's Request
R:reel
C:Paul S. Cranford
D:The Lighthouse, Cranford Publications
B:The Lighthouse Collection, ISBN 0-9691181-5-5
N:Contacts ...
N:..... Cranford Publications <http://www.cranfordpub.com>
H:Composed for Siobhan O'Keeffe
Q:300
O:England
L:1/8
M:C|
K:Ador
AG|EA A/A/A cEAc|BGG2 cABg|agab aged|cedB cABG|
EA A/A/A cEAc|BGG2 cABg|aegd eged|cedB A2:|
eg|ae e/e/e dgBg|agab ageg|ae e/e/e dgBd|cedB cABg|
ae e/e/e dgBg|agab ageg|aegd (3(efg) ed|cedB A2:|
